!!!!SEGMENT: pl-wtm--1350-fp-4575--001-002_stojowski-zygmunt--idylles-polonaises-op-24-no-2-l-appel-des-moissonneurs.krn
!!!cenid: 19xx:166
!!!COM: Stojowski, Zygmunt
!!!COM-rismID: pe41019736
!!!CDT: 1870-1946
!!!CNT: Polish
!!!GTL: Idylles Polonaises Op. 24
!!!OTL: No. 2 L’Appel Des Moissonneurs
!!!OMV: 002
!!!PDT: 1901
!!!AGN: Secular; Polonaise
!!!YEC: Copyright 2022 Narodowy Instytut Fryderyka Chopina (https://polishscores.org)
!!!YEM: License CC-BY-4.0 (https://creativecommons.org/licenses/by/4.0)
!!!SMS-siglum: PL-Wtm
!!!SMS-shelfmark: 1350 fp 4575
!!!SMS-variant:
!!!SMS-altvar:
!!!SMS-shelfwork: 001-002 G
!!!NIFC-rismSourceID: 1001214687
!!!NIFC-rismChildID: 1001214687
!!!NIFC-islandoraID: pl-wtm:83027
!!!URL-pdf-islandora: https://repozytorium.nifc.pl/islandora/object/pl-wtm%3A83027/datastream/PDF/view
!!!URL-scan: https://polish.musicsources.pl/pl/lokalizacje/galeria/druki-muzyczne/18546/3 @EN{Scan on Polish Music Sources Website} @PL{Skany w portalu Dziedzictwo Muzyki Polskiej w otwartym dostępie}
!!!IIIF:
!!!ONB-nifc:
!!!AIN: 1 piano
!!!key: B-
**kern	**fing	**kern	**fing	**dynam
*part1	*	*part1	*	*part1
*staff2	*	*staff1	*	*staff1/2
*group1	*	*group1	*	*
*ICklav	*	*ICklav	*	*
*Ipiano	*	*Ipiano	*	*
*I"[Pianoforte]	*	*I"[Pianoforte]	*	*
*	*	*I'	*	*
*clefF4	*	*clefG2	*	*
*k[b-e-]	*	*k[b-e-]	*	*
*B-:	*	*B-:	*	*
*M3/8	*	*M3/8	*	*
=1	=1	=1	=1	=1
!!LO:TX:a:B:t=Allegro con spirito.
(24BBB-\LL	.	8r	.	.
24FF\	.	.	.	.
24BB-\JJ)	.	.	.	.
8ryy	.	8fL 8F<'>/	.	.
*	*below	*	*	*
(8F^\	4	(8f^>/J	1	.
=2	=2	=2	=2	=2
16G\LL	3	16g/LL	2	.
16A\	.	16a/	.	.
16B-\	.	16b-/	.	.
16G\J	.	16g/J	.	.
[8F\J)	.	[8f/J	.	.
=3	=3	=3	=3	=3
4.F\_	.	4.f/])	.	>
=4	=4	=4	=4	=4
4.F\]	.	4.r	.	.
.	.	.	.	]
=5	=5	=5	=5	=5
!	!	!	!	!LO:DY:t=%s poco rit.
(16G\LL	.	4.r	.	p
16A\	.	.	.	.
16B-\	.	.	.	.
16G\J	.	.	.	.
[8F\J	.	.	.	.
=6	=6	=6	=6	=6
4.F\])	.	4.r	.	.
=7	=7	=7	=7	=7
!!LO:TX:a:i:t=a tempo
8d: 8F: 8BB-':\	.	8ff 8b- 8f'/	.	f
[4d [4B- 4F#X\	4	16dd\LL	5	.
.	.	16cc\	.	.
.	.	16b-\	.	.
.	.	16a\JJ	.	.
!!LO:LB:g=original
=8	=8	=8	=8	=8
!LO:TX:t=P:problem:brak zakończenia ligatur	!	!	!	!LO:DY:rj
8d]L 8B-] 8G\	3	16g/LL	.	p
.	.	16a/	.	.
8G 8E-'\	.	16b-/	.	.
.	.	16dd/J	.	.
.	.	(8qdd/	4	.
8AJ 8F'\	4	8cc/J)	3	.
=9	=9	=9	=9	=9
*^	*	*	*	*
4.B-/	(4E-\	3	(16g/LL	1	.
.	.	.	16a/	3	.
.	.	.	16b-/	.	.
.	.	.	16g/J	.	.
.	8D\)	.	8f/J)	.	.
*v	*v	*	*	*	*
=10	=10	=10	=10	=10
.	.	(8qf/	3	.
8B- 8F 8C'\	.	8e-'/)	2	.
4B- 4F 4BB-~\	.	4d~/	1	.
=11	=11	=11	=11	=11
*^	*	*	*	*
(8A/L	4F\	2 4	(24e-/LL	2	.
.	.	.	24f/	.	.
.	.	.	24e-/J	.	.
8B-/)	.	.	8d'/)	.	.
8FJ 8BB-'>/	8ryy	.	8f'/J	.	.
=12	=12	=12	=12	=12	=12
(8A/L	4F\	2 4	(24e-/LL	.	<
.	.	.	24f/	.	.
.	.	.	24e-/J	.	.
8B-'/)	.	.	8d'/)	.	.
8DJ 8GG'>/	8ryy	.	8g'/J	4	[
=13	=13	=13	=13	=13	=13
!!LO:TX:a:i:t=poco slargando
(4A/	4.D\	1 5	16f/LL	3	.
.	.	.	16g/	.	.
.	.	.	16a/	.	.
.	.	.	16f/J	.	.
8G/)	.	.	8en/J	.	.
*v	*v	*	*	*	*
=14	=14	=14	=14	=14
.	.	(8qen/	3	.
4.F 4.D\	.	4.d/)	.	.
!!LO:LB:g=original
=15	=15	=15	=15	=15
*^	*	*	*	*
!!LO:TX:a:i:t=a tempo
(8A/L	4F\	2 4	(24e-X/LL	2	.
.	.	.	24f/	.	.
.	.	.	24e-/J	.	.
8B-/)	.	.	8d'/)	.	.
8FJ 8BB-'^>/	8ryy	.	8f^>/J	.	.
=16	=16	=16	=16	=16	=16
(8A/L	4F\	.	(24e-/LL	.	.
.	.	.	24f/	.	.
.	.	.	24e-/J	.	.
8B-/)	.	.	8d'/)	.	.
8FFJ 8BBB-'^>/	8ryy	.	8b-^>/J	.	.
=17	=17	=17	=17	=17	=17
*	*	*	*Xtuplet	*	*
!	!	!	!LO:TX:a:i:t=poco-a-poco-cresc.:ext=s:problem:text with extention lines	!	!LO:HP:a
(8A/L	4F\	.	(24e-/LL	.	<
.	.	.	24f/	.	.
.	.	.	24e-/J	.	.
8B-/)	.	.	8d'/)	.	.
8FJ 8BB-'^>/	8ryy	.	8f^>/J	.	.
=18	=18	=18	=18	=18	=18
(8A/L	4F\	.	(24e-/LL	.	.
.	.	.	24f/	.	.
.	.	.	24e-/J	.	[[
8B-/)	.	.	8d'/)	.	.
8FFJ 8BBB-^>/	8ryy	.	8dd^>/J	.	.
=19	=19	=19	=19	=19	=19
(8A/L	4F\	.	(24e-/LL	.	.
.	.	.	24f/	.	.
.	.	.	24e-/J	.	.
8B-/)	.	.	8d/)	.	.
8FJ 8BB-'>/	8ryy	.	8ffJ 8f^>/	.	.
=20	=20	=20	=20	=20	=20
(8A/L	4F\	.	(24e-/LL	.	.
.	.	.	24f/	.	.
.	.	.	24e-/J	.	.
8B-/)	.	.	8d/)	.	.
8FFJ 8BBB-/	8ryy	.	8bb-J 8b-^>/	.	.
=21	=21	=21	=21	=21	=21
!	!	!	!	!	!LO:DY:t=%s espressivo
!	!	!	!	!	!LO:HP:a
(24B-/LL	4F\	2 5	(4ff 4f\	.	f <
24c/	.	.	.	.	.
24B-/J	.	.	.	.	.
*	*	*above	*	*	*
8A/)	.	3	.	.	.
8DJ 8DD/	8ryy	.	8ff#X 8f#X\	4	[
!!LO:LB:g=original
=22	=22	=22	=22	=22	=22
*	*	*	*^	*	*
*	*	*below	*	*	*	*
(24c/LL	4E-\	2 5	8.gg/L	4g\	.	>
24d/	.	.	.	.	.	.
24c/J	.	.	.	.	.	.
*	*	*above	*	*	*	*
8B-/)	.	3	.	.	.	.
.	.	.	16ee-'/L)	.	4	.
*	*	*below	*	*	*	*
8A/J	8F\	2 4	16dd'/	8fn\	5	]
.	.	.	16cc'/JJ	.	4	.
=23	=23	=23	=23	=23	=23	=23
(24G/LL	4BB-\	2 5	(8dd/L	4d\	5	.
24A/	.	.	.	.	.	.
24G/J	.	.	.	.	.	.
8F/)	.	.	8b-/)	.	3	.
8FFJ 8BBB-/	8ryy	.	8ffJ 8f^>/	8ryy	.	<
=24	=24	=24	=24	=24	=24	=24
(24G/LL	4BB-\	.	(8dd/L	4d\	.	.
24A/	.	.	.	.	.	.
24G/J	.	.	.	.	.	.
8F/J)	.	.	8b-/J)	.	.	.
8FF 8BBB-/	8ryy	.	8bb- 8b-^\	8ryy	.	[
*	*	*	*v	*v	*	*
=25	=25	=25	=25	=25	=25
(24B-/LL	4D\	.	(4ff 4f\	.	.
24c/	.	.	.	.	.
24B-/J	.	.	.	.	.
8A/)	.	.	.	.	.
8DJ 8DD/	8ryy	.	8ff#X 8f#X\	4	.
=26	=26	=26	=26	=26	=26
*	*	*	*^	*	*
!	!	!	!LO:N:vis=8	!	!	!
(24c/LL	4E-\	.	8.gg/L	4.g\	.	.
24d/	.	.	.	.	.	.
24c/J	.	.	.	.	.	.
8B-/J)	.	.	.	.	.	.
!	!	!	!LO:TX:b:i:t=poco rit.	!	!	!
.	.	.	16ee-'/L)	.	4	.
8AA/	8ryy	2	16dd'/	.	5	.
.	.	.	16cc#X'/JJ	.	4	.
*v	*v	*	*	*	*	*
=27	=27	=27	=27	=27	=27
!LO:TUP:a	!	!	!	!	!
(24DD\LL	.	([4.dd/	4.f#X\	2 5	f
24AA\	.	.	.	.	.
24D\J	.	.	.	.	.
8A\)	.	.	.	.	.
*	*above	*	*	*	*
(8A^<\J	4	.	.	.	.
=28	=28	=28	=28	=28	=28
16B-\LL	3	4dd/]	4.g\	.	>
16c\	.	.	.	.	.
16d\	.	.	.	.	.
16B-\J	.	.	.	.	.
8c\J)	.	8ee-/	.	4	]
*	*	*v	*v	*	*
!!LO:LB:g=original
=29	=29	=29	=29	=29
!!LO:TX:a:i:t=a tempo
8d: 8F: 8BB-^:\	.	8ffL 8b- 8f'>^/)	.	p
*	*below	*	*	*
[4d [4B- 4F#X\	4	16dd/L	5	.
.	.	16cc/	.	.
.	.	16b-/	.	.
.	.	16a/JJ	.	.
=30	=30	=30	=30	=30
8d]L 8B-] 8G\	.	16g/LL	.	.
.	.	16a/	.	.
8G 8E-'\	5	16b-/	.	.
.	.	16dd/J	.	.
.	.	(8qdd/	4	.
8AJ 8Fn'\	4	8cc/J)	3	.
=31	=31	=31	=31	=31
*^	*	*	*	*
4.B-/	(4E-\	3	(16g/LL	1	.
.	.	.	16a/	3	.
.	.	.	16b-/	.	.
.	.	.	16g/J	.	.
.	8D\)	.	8f/J)	.	.
*v	*v	*	*	*	*
=32	=32	=32	=32	=32
.	.	(8qf/	3	.
8B- 8F 8C'\	.	8e-'/)	2	.
4B- 4F 4BB-~\	.	4d~/	1	.
=33	=33	=33	=33	=33
*^	*	*	*	*
!	!	!	!	!	!LO:HP:t=poco cresc.
4.d/	(4G\	3	(16b-\LL	.	<
.	.	.	16cc\	.	.
.	.	.	16dd\	.	.
.	.	.	16b-\J	.	.
.	8F\)	.	8a\J)	.	.
*v	*v	*	*	*	*
=34	=34	=34	=34	=34
.	.	(8qa/	3	.
8d 8A 8En'\	.	8g'/)	2	.
4d 4A 4D~\	.	4f~/	1	.
=35	=35	=35	=35	=35
*^	*	*	*	*
4.f/	(4B-\	3	(16dd\LL	2	.
.	.	.	16een\	.	.
.	.	.	16ff\	.	.
.	.	.	16dd\J	.	.
.	8A\)	.	8cc\J)	.	.
*v	*v	*	*	*	*
!!LO:PB:g=original
=36	=36	=36	=36	=36
.	.	(8qcc/	3	.
8f 8c 8G'\	.	8b-\)	2	.
[4f [<4c [4F~\	.	(>[4a~>/	1	>
=37	=37	=37	=37	=37
*^	*	*	*	*
(4f] 4c/]	4.F\]	.	16a/LL]	.	.
.	.	.	16b-/	3	.
.	.	.	16cc/	.	.
.	.	.	16a/J	.	.
8en 8B-/)	.	3	8g'>/J)	.	]
*v	*v	*	*	*	*
=38	=38	=38	=38	=38
!	!	!	!	!LO:DY:t=%s ma cantando
.	.	(8qg/	3	p
4.A 4.F\	.	([4.f/)	2	.
=39	=39	=39	=39	=39
!LO:N:vis=4	!	!	!	!
8FF'/	.	4f/]	.	.
8r	.	.	.	.
(8G [8F\	4 5	8en/	1	.
=40	=40	=40	=40	=40
*^	*	*	*	*
8.A/L	4.F\]	.	8.f/L	2	.
16B-/K	.	.	16g/K	.	.
8c/J)	.	.	8a/J)	.	.
=41	=41	=41	=41	=41	=41
!LO:N:vis=4.	!	!	!	!	!
4.d/	(4B-\	1 2	(4f/	.	.
.	8G\)	4	8g/)	.	.
*v	*v	*	*	*	*
=42	=42	=42	=42	=42
4.c 4.F\	5	4.a 4.f/	.	.
=43	=43	=43	=43	=43
*	*	*^	*	*
*	*	*tuplet	*	*	*
(4d 4c 4F\	.	(24b-/LL	4f\	1 3	.
.	.	24cc/	.	.	.
.	.	24b-/J	.	.	.
.	.	8a'/)	.	.	.
8en 8c 8F'\)	.	8cc'^/J	8g\	.	.
=44	=44	=44	=44	=44	=44
*	*	*Xtuplet	*	*	*
(4d 4c 4F\	.	(24b-/LL	4f\	.	<
.	.	24cc/	.	.	.
.	.	24b-/J	.	.	.
.	.	8a'/)	.	.	.
8en 8c 8F'\)	.	8cc'^/J	8g\	.	.
!!LO:LB:g=original
=45	=45	=45	=45	=45	=45
(4d 4c 4F\	.	(24b-/LL	4f\	.	.
.	.	24cc/	.	.	.
.	.	24b-/J	.	.	.
.	.	8a'/)	.	.	.
8en 8c 8F'\)	.	8cc'^/J	8g\	.	.
=46	=46	=46	=46	=46	=46
!LO:TUP:a	!	!	!	!	!
(24FF\LL	5	([4.ff/	4.a\	1 5	f
24C\	.	.	.	.	.
24F\J	1	.	.	.	.
8c'\)	2	.	.	.	.
(8c^\J	4	.	.	.	.
=47	=47	=47	=47	=47	=47
16d\LL	3	4ff/]	4.b-\	.	.
16en\	2	.	.	.	.
16f\	1	.	.	.	.
16d\J	2	.	.	.	.
8c\J)	3	8een/	.	4	.
=48	=48	=48	=48	=48	=48
!LO:TUP:a	!	!	!	!	!
(24FF\LL	.	8.ff/L	4.a\	3	.
24C\	.	.	.	.	.
24F\J	.	.	.	.	.
8c'\)	.	.	.	.	.
.	.	16gg/K	.	.	.
(8c^\J	.	8aa/J	.	.	.
=49	=49	=49	=49	=49	=49
16d\LL	.	4ff/	4.b-\	1 3	.
16en\	.	.	.	.	.
16f\	.	.	.	.	.
16d\J	.	.	.	.	.
8c\J)	.	8gg 8een/)	.	.	.
*	*	*v	*v	*	*
=50	=50	=50	=50	=50
!LO:TUP:a	!	!	!	!
(24FF\LL	.	4.aa 4.ff 4.a~\	.	.
24C\	.	.	.	.
24F\J	.	.	.	.
8c'\)	.	.	.	.
(8c^\J	.	.	.	.
=51	=51	=51	=51	=51
!	!	!LO:TX:t=P:problem:łuczek nad oznaczeniem palcwoania (45)	!	!
!	!	!LO:TX:b:i:t=con fuoco	!	!
16d\LL	.	(8cccL 8bb- 8ff 8b-\	1 2 45	.
16en\	.	.	.	.
16f\	.	8aa 8a'\)	.	.
16d\J	.	.	.	.
8c\J)	.	8cccJ 8cc'^\	.	.
!!LO:LB:g=original
=52	=52	=52	=52	=52
!LO:TUP:a	!	!	!	!
(24FF\LL	.	(8cccL 8bb- 8ff 8b-\	.	.
24C\	.	.	.	.
24F\J	.	.	.	.
8c'\)	.	8aa 8a\)	.	.
(8c\J	.	8cccJ 8cc'^\	.	.
=53	=53	=53	=53	=53
16d\LL	.	(8cccL 8bb- 8ff 8b-\	.	.
16en\	.	.	.	.
16f\	.	8aa 8a\)	.	.
16d\J	.	.	.	.
8c\J)	.	8cccJ 8bb- 8een 8cc'^\	.	.
=54	=54	=54	=54	=54
!LO:TUP:a	!	!	!	!
(24FF\LL	.	4fff 4ccc 4aa 4ff\	.	.
24C\	.	.	.	.
24F\J	.	.	.	.
8c\)	.	.	.	.
(8c\J	.	[8ccc [8aa [8ff [8cc\	.	.
=55	=55	=55	=55	=55
16d\LL	.	8ccc]L 8aa] 8ff] 8cc\]	.	.
16en\	.	.	.	.
16f\	.	8aa 8ff 8a~\	.	.
16d\J	.	.	.	.
.	.	(>8qccc/	.	.
8c\J)	.	8bb-J 8een 8b-\)	.	.
=56	=56	=56	=56	=56
!LO:TUP:a	!	!	!	!
(24FF\LL	.	[4.aa 4.ff 4.a\	.	.
24C\	.	.	.	.
24F\J	.	.	.	.
8c\)	.	.	.	.
(8c\J	.	.	.	.
=57	=57	=57	=57	=57
*	*	*^	*	*
*	*	*	*	*below	*
16d\LL	.	(8aa/L]	4.b-\	1	.
16en\	.	.	.	.	.
*	*	*	*	*above	*
16f\	.	8ff/	.	3	.
16d\J	.	.	.	.	.
.	.	8qaa/	.	.	.
8c\J)	.	8ggJ 8een/)	.	.	.
*	*	*v	*v	*	*
=58	=58	=58	=58	=58
!LO:TUP:a	!	!	!	!
(24FF\LL	.	([4.ff 4.a\	3	.
24C\	.	.	.	.
24F\J	.	.	.	.
8c\)	.	.	.	.
.	.	.	.	>
(8c\J	.	.	.	.
!!LO:LB:g=original
=59	=59	=59	=59	=59
*	*	*^	*	*
16d-X\LL	.	4ff/]	4.b-\	.	.
16e-\	.	.	.	.	.
16f\	.	.	.	.	.
16d-\J	.	.	.	.	.
8e-\J)	.	8gg/)	.	4	]
=60	=60	=60	=60	=60	=60
!LO:TUP:a	!	!	!	!	!
(24AA-X\LL	5	(8.aa-X/L	4.cc\	3	p
24E-\	.	.	.	.	.
24A-X\J	1	.	.	.	.
8e-\)	2	.	.	.	.
.	.	16bb-/K	.	.	.
(8e-\J	4	8ccc/J	.	.	.
=61	=61	=61	=61	=61	=61
16f\LL	3	4aa-X/	4.dd-X\	3	.
16g\	2	.	.	.	.
16a-X\	1	.	.	.	.
16f\J	2	.	.	.	.
8e-\J)	3	8bb- 8gg/	.	4	.
*	*	*v	*v	*	*
=62	=62	=62	=62	=62
*	*	*8va	*	*
!LO:TUP:a	!	!	!	!
(24AA-X\LL	.	8.cccL 8.aa-X 8.cc/)	.	<
24E-\	.	.	.	.
24A-X\J	.	.	.	.
8e-\)	.	.	.	.
.	.	16ddd-XK 16dd-X/	4	.
(8e-\J	4	[8eee-J [8ee-/	5	.
=63	=63	=63	=63	=63
*	*	*^	*	*
16f\LL	.	(8eee-]L 8ee-/]	4.ddd-X\	.	.
16g\	.	.	.	.	[
16a-X\	.	8fff 8ff/	.	.	.
16f\J	.	.	.	.	.
8e-\J)	.	8gggJ 8gg/)	.	.	.
=64	=64	=64	=64	=64	=64
!LO:TUP:a	!	!	!	!	!
(24AA-X\LL	.	(8bbb-L 8bb-/	4ccc\	.	>
24E-\	.	.	.	.	.
24A-X\J	.	.	.	.	.
8e-\)	.	8aaa-X 8aa-X/)	.	.	.
(8e-\J	4	8eee-J 8ccc 8aa- 8ee-'>/	8ryy	.	]
*	*	*v	*v	*	*
*	*	*X8va	*	*
=65	=65	=65	=65	=65
16f\LL	.	(4ccc 4aa-X 4cc\	.	.
16g\	.	.	.	.
16a-X\	.	.	.	.
16f\J	.	.	.	.
.	.	8qeee-/	.	.
8e-\J)	.	8ddd-X 8gg 8dd-X\)	.	.
!!LO:LB:g=original
=66	=66	=66	=66	=66
!LO:TUP:a	!	!	!	!
(24AA-X\LL	.	[4.ccc 4.aa-X 4.cc\	.	.
24E-\	.	.	.	.
24A-X\J	.	.	.	.
8e-\)	.	.	.	.
(8e-\J	.	.	.	.
=67	=67	=67	=67	=67
*	*	*^	*	*
16f\LL	.	(8ccc/L]	(4dd^\	.	>
16g\	.	.	.	.	.
16a-X\	.	8aa-X/	.	.	.
16f\J	.	.	.	.	.
.	.	8qccc/	.	.	.
8e-\J)	.	8bb-J 8gg/)	8dd-X\)	.	]
*	*	*v	*v	*	*
=68	=68	=68	=68	=68
!LO:TUP:a	!	!	!	!
(24AA-X\LL	.	([4.aa-X 4.cc\	.	.
24E-\	.	.	.	.
24A-X\J	.	.	.	.
8e-\)	.	.	.	.
(8e-\J	.	.	.	.
*clefG2	*	*	*	*
=69	=69	=69	=69	=69
*	*	*^	*	*
16f-X/LL	.	4aa-/]	[4.dd-X\	.	.
16g-X/	.	.	.	.	.
16a-X/	.	.	.	.	.
16f-/J	.	.	.	.	.
[8g-/J	.	[8bb-/)	.	.	.
*	*	*v	*v	*	*
=70	=70	=70	=70	=70
4.g-/])	.	4.bb-] 4.dd-\]	.	.
=71	=71	=71	=71	=71
*	*	*^	*	*
!	!	!LO:TX:b:i:t=rit.	!	!	!LO:DY:t=più %s
(16f-X/LL	.	(4aa-X/	[4.dd-X\	.	p
16g-X/	.	.	.	.	.
16a-X/	.	.	.	.	.
16f-/J	.	.	.	.	.
[8g-/J	.	[8bb-/)	.	.	.
*	*	*v	*v	*	*
=72	=72	=72	=72	=72
4.g-/])	.	4.bb-] 4.dd-\]	.	.
!!LO:PB:g=original
=73	=73	=73	=73	=73
*	*	*^	*	*
*	*	*	*	*below	*
!!LO:TX:a:i:t=a tempo
!	!	!LO:TX:b:i:t=legg.	!	!	!
8ff-X'\L	.	16ccc-X/LL	8aa-X\L	3 2	.
.	.	16ddd-X/	.	.	.
8cc-X'\	.	16eee-/	8gg\	5 1	.
.	.	16ccc-/J	.	.	.
8f-X'\J	.	8ddd-~/J	8aa-\J	4 2	.
=74	=74	=74	=74	=74	=74
8ee-'/L	.	16bb-/LL	8gg\L	3 1	.
.	.	16cccn/	.	.	.
8b-'/	.	16dddn/	8ff#X\	5 2	.
.	.	16bb-/J	.	.	.
8e-'/J	.	8ccc~/J	8gg\J	4 1	.
=75	=75	=75	=75	=75	=75
8dd'/L	.	16aa/LL	8ff#X\L	3 2	.
.	.	16bbn/	.	.	.
8a'/	.	16ccc#X/	8ee#X\	5 1	<
.	.	16aa/J	.	.	.
8d'/J	.	8bb~/J	8ff#\J	4 2	.
=76	=76	=76	=76	=76	=76
8dd-X'/L	.	16aa-X/LL	8ffn\	3 1	.
.	.	16bb-X/	.	.	.
8a-X'/	.	16cccn/	(4ff-X\	1	[
.	.	16aa-/J	.	.	.
8g-X'/J	.	8bb-/J	.	.	.
*	*	*v	*v	*	*
*clefF4	*	*	*	*
=77	=77	=77	=77	=77
!	!	!LO:TX:b:i:t=poco marcato	!	!
(>8qC-X/	.	.	.	.
*	*	*	*above	*
(8g-X\L)	1	8ccc-XL 8ee-'\)	2 5	.
16e-\L	2	8gg-X'\	3	.
16d-X\	3	.	.	.
16c-X\	.	8ee-'\J	2	.
16B-\JJ	.	.	.	.
=78	=78	=78	=78	=78
*^	*	*	*	*
16A-X/LL	8F-X\L	3 5	8cc-X'/L	1	.
16B-/	.	.	.	.	.
16c-X/	8r	.	8a-X'/	3	.
16e-/J	.	.	.	.	.
8d-X/J)	8G-X\J	3 5	8b-J 8f-X'/	4	.
!!LO:LB:g=original
=79	=79	=79	=79	=79	=79
*	*	*	*^	*	*
4.c-X/	(4F-X\	3	(16a-X/LL	4f-X\	1 3	.
.	.	.	16b-/	.	.	>
.	.	.	16cc-X/	.	.	.
.	.	.	16a-/J	.	.	.
.	8E-\)	.	8g-X/J)	8ryy	.	]
*v	*v	*	*	*	*	*
*	*	*v	*v	*	*
=80	=80	=80	=80	=80
.	.	(8qg-X/	4	.
8c-X 8G-X 8D-X'\	.	8f-X'/)	3	.
4c- 4G- 4C-X~\	.	4e-/	2	.
=81	=81	=81	=81	=81
.	.	(>8qd/	.	p
8B- 8F 8BB-'\	.	8ff'\L)	.	.
[4d [4B- 4F#X\	4	16dd\L	5	.
.	.	16cc\	.	.
.	.	16b-\	.	.
.	.	16a\JJ	.	.
=82	=82	=82	=82	=82
8d]L 8B-] 8G\	.	16g\LL	.	.
.	.	16a\	.	.
8G 8E-'\	5	16b-\	.	.
.	.	16dd\J	.	.
.	.	(8qdd/	4	.
8AJ 8FnX'\	4	8cc\J)	3	.
=83	=83	=83	=83	=83
*^	*	*	*	*
4.B-/	(4E-\	3	(16g/LL	1	.
.	.	.	16a/	3	.
.	.	.	16b-/	.	.
.	.	.	16g/J	.	.
.	8D\)	.	8f/J)	.	.
*v	*v	*	*	*	*
=84	=84	=84	=84	=84
.	.	(8qf/	3	.
8B- 8F 8C'\	.	8e-'/)	2	.
4B- 4F 4BB-~\	.	4d~/	1	.
=85	=85	=85	=85	=85
*^	*	*	*	*
*	*	*	*tuplet	*	*
(8A/L	4F\	.	(24e-/LL	2	.
.	.	.	24f/	.	.
.	.	.	24e-/J	.	.
8B-/)	.	.	8d/)	.	.
8F'/J	8BB-\	.	8f'/J	.	.
!!LO:LB:g=original
=86	=86	=86	=86	=86	=86
*	*	*	*Xtuplet	*	*
(8A/L	4F\	.	(24e-/LL	.	.
.	.	.	24f/	.	.
.	.	.	24e-/J	.	.
8B-/)	.	.	8d'/)	.	.
8FFJ 8BBB-'>/	8ryy	.	8b-'/J	.	.
=87	=87	=87	=87	=87	=87
!	!	!	!	!	!LO:HP:a:t=poco a poco cresc.
(8A/L	4F\	.	(24e-/LL	.	<
.	.	.	24f/	.	.
.	.	.	24e-/J	.	.
8B-/)	.	.	8d/)	.	.
8FJ 8BB-'>/	8ryy	.	8f'/J	.	.
=88	=88	=88	=88	=88	=88
(8A/L	4F\	.	(24e-/LL	.	.
.	.	.	24f/	.	.
.	.	.	24e-/J	.	.
8B-/)	.	.	8d/)	.	.
8FFJ 8BBB-'>/	8ryy	.	8dd'/J	.	.
=89	=89	=89	=89	=89	=89
8A/L	4F\	.	(24e-/LL	.	.
.	.	.	24f/	.	.
.	.	.	24e-/J	.	.
8B-/	.	.	8d/)	.	.
8FFJ 8BBB-/	8ryy	.	8ffJ 8dd 8f/	.	.
=90	=90	=90	=90	=90	=90
8A/L	4F\	.	(24e-/LL	.	.
.	.	.	24f/	.	.
.	.	.	24e-/J	.	.
8B-/	.	.	8d/)	.	.
8FFJ 8BBB-/	8ryy	.	8bb-J 8b-/	.	.
=91	=91	=91	=91	=91	=91
!	!	!	!	!	!LO:DY:t=%s espr.
!	!	!	!	!	!LO:HP:a
(24B-/LL	4D\	2 5	(4ff 4f\	.	f <
24c/	.	.	.	.	.
24B-/J	.	.	.	.	.
8A/)	.	.	.	.	.
8DJ 8DD/	8ryy	.	8ff#X 8f#X\	.	[
=92	=92	=92	=92	=92	=92
*	*	*	*^	*	*
(24B-/LL	4E-\	2 5	8.gg/L	4g\	.	>
24c/	.	.	.	.	.	.
24B-/J	.	.	.	.	.	.
8A/)	.	.	.	.	.	.
.	.	.	16ee-'/L)	.	4	.
8A/J	8F\	2 4	16dd'/	8fn\	5	]
.	.	.	16cc'/JJ	.	4	.
!!LO:LB:g=original
=93	=93	=93	=93	=93	=93	=93
!	!	!	!	!	!	!LO:DY:rj
(24G/LL	4BB-\	2 5	(8dd/L	4d\	.	mp
24A/	.	.	.	.	.	.
24G/J	.	.	.	.	.	.
8F/)	.	.	8b-/)	.	.	.
8FFJ 8BBB-/	8ryy	.	8ffJ 8dd 8f/	8ryy	.	.
=94	=94	=94	=94	=94	=94	=94
(24G/LL	4BB-\	.	(8dd/L	4d\	.	<
24A/	.	.	.	.	.	.
24G/J	.	.	.	.	.	.
8F/)	.	.	8b-/)	.	.	.
8FFJ 8BBB-/	8ryy	.	8bb-J 8b-/	8ryy	.	[
*	*	*	*v	*v	*	*
=95	=95	=95	=95	=95	=95
(24B-/LL	4D\	.	(4ff 4f\	.	.
24c/	.	.	.	.	.
24B-/J	.	.	.	.	.
8A/)	.	.	.	.	.
8DJ 8DD/	8ryy	.	8ff#X 8f#X\	.	.
=96	=96	=96	=96	=96	=96
*	*	*	*^	*	*
(24c/LL	4E-\	2 5	8.gg/L	4.g\	.	>
24d/	.	.	.	.	.	.
24c/J	.	.	.	.	.	.
8B-/)	.	.	.	.	.	.
.	.	.	16ee-'/L)	.	4	.
8AA/J	8ryy	.	16dd'/	.	3	.
.	.	.	16cc#X'/JJ	.	2	]
*	*	*	*v	*v	*	*
=97	=97	=97	=97	=97	=97
!	!	!	!LO:TX:b:i:t=sempre-più-cresc.:ext=s:problem:text with extention lines	!	!
(24d/LL	4F#X\	2 5	(4aa 4a\	.	<
24en/	.	.	.	.	.
24d/J	.	.	.	.	.
8c#X/)	.	.	.	.	.
8FF#XJ 8FFF#X/	8ryy	.	8aa#X 8a#X\	.	.
=98	=98	=98	=98	=98	=98
*	*	*	*^	*	*
(24en/LL	4G\	1 5	8.bbn/L	4.bn\	.	.
24f#X/	.	.	.	.	.	.
24e/J	.	.	.	.	.	.
8d/)	.	.	.	.	.	[
.	.	.	16gg/L)	.	4	.
8C#X/J	8ryy	.	16ff#X/	.	3	.
.	.	.	16ffn/JJ	.	2	.
*	*	*	*v	*v	*	*
=99	=99	=99	=99	=99	=99
(24g-X/LL	4B-\	.	(4ddd-X 4dd-X\	.	.
24a-X/	.	.	.	.	.
24g-/J	.	.	.	.	.
8f/)	.	.	.	.	.
8BB-J 8BBB-/	8ryy	.	8dddn 8ddn\	.	.
!!LO:LB:g=original
=100	=100	=100	=100	=100	=100
*	*	*	*^	*	*
(24a-X/LL	4c-X\	.	8.eee-/L	4.ee-\	.	.
24b-/	.	.	.	.	.	.
24a-/J	.	.	.	.	.	.
8g-X/)	.	.	.	.	.	.
.	.	.	16ccc-X/L)	.	.	.
8F^>/J	8ryy	.	16bb-/	.	.	.
.	.	.	16aa/JJ	.	.	.
*v	*v	*	*	*	*	*
*	*	*v	*v	*	*
=101	=101	=101	=101	=101
!LO:TUP:a	!	!	!	!
(24BB-\LL	.	([4.bb- 4.dd\	3	ff
24F\	.	.	.	.
24B-\J	.	.	.	.
8f'\)	2	.	.	.
(8f^\J	4	.	.	.
=102	=102	=102	=102	=102
*	*	*^	*	*
16g\LL	3	4bb-/]	4.ee-\	.	.
16a\	2	.	.	.	.
16b-\	1	.	.	.	.
16g\J	2	.	.	.	.
8f\J)	.	8aa/	.	2	.
=103	=103	=103	=103	=103	=103
!LO:TUP:a	!	!	!	!	!
(24BB-\LL	.	8.bb-/L	4.dd\	3	.
24F\	.	.	.	.	.
24B-\J	.	.	.	.	.
8f'\)	.	.	.	.	.
.	.	16ccc/K	.	.	.
(8f^\J	.	8ddd/J	.	.	.
=104	=104	=104	=104	=104	=104
16g\LL	.	4bb-/	4.ee-\	3	.
16a\	.	.	.	.	.
16b-\	.	.	.	.	.
16g\J	.	.	.	.	.
8f\J)	.	8ccc 8aa/)	.	.	.
*	*	*v	*v	*	*
=105	=105	=105	=105	=105
!LO:TUP:a	!	!	!	!
(24BB-\LL	.	4.ddd 4.bb- 4.dd~\	.	.
24F\	.	.	.	.
24B-\J	.	.	.	.
8f'\)	.	.	.	.
(8f^\J	.	.	.	.
=106	=106	=106	=106	=106
16g\LL	.	(8eee-L [8bb- [8ff 8ee-\	.	.
16a\	.	.	.	.
16b-\	.	8ddd 8bb-] 8ff] 8dd'\)	.	.
16g\J	.	.	.	.
8f\J)	.	8fffJ 8ff'\	.	.
!!LO:LB:g=original
=107	=107	=107	=107	=107
!LO:TUP:a	!	!	!	!
(24BB-\LL	.	(8eee-L [8bb- [8ff 8ee-\	.	.
24F\	.	.	.	.
24B-\J	.	.	.	.
8f'\)	.	8ddd 8bb-] 8ff] 8dd'\)	.	.
(8f\J	.	8fffJ 8ff'\	.	.
=108	=108	=108	=108	=108
16g\LL	.	(8eee-L [8bb- [8ff 8ee-\	.	.
16a\	.	.	.	.
16b-\	.	8ddd 8bb-] 8ff] 8dd'\)	.	.
16g\J	.	.	.	.
8f\J)	.	8fffJ 8eee- 8aa 8ff'\	.	.
=109	=109	=109	=109	=109
!LO:TUP:a	!	!	!	!
(24BB-\LL	.	4bbb- 4fff 4ddd 4bb-~\	.	.
24F\	.	.	.	.
24B-\J	.	.	.	.
8f\)	.	.	.	.
(8f\J	.	[8fff [8ddd [8bb- [8ff~\	.	.
=110	=110	=110	=110	=110
16g\LL	.	8fff]L 8ddd] 8bb-] 8ff\]	.	.
16a\	.	.	.	.
16b-\	.	8ddd 8bb- 8dd~\	.	.
16g\J	.	.	.	.
.	.	(>8qfff/	.	.
8f\J)	.	8eee-J 8aa 8ee-\)	.	.
=111	=111	=111	=111	=111
!LO:TUP:a	!	!	!	!
(24BB-\LL	.	([4.ddd 4.bb- 4.dd\	.	.
24F\	.	.	.	.
24B-\J	.	.	.	.
8f\)	.	.	.	.
(8f\J	.	.	.	.
=112	=112	=112	=112	=112
*	*	*^	*	*
16g\LL	.	8ddd/L]	4ee-\	.	.
16a\	.	.	.	.	.
!	!	!	!	!	!LO:HP:t=dim. molto
16b-\	.	8bb-/	.	.	>
16g\J	.	.	.	.	.
.	.	(>8qddd/	.	.	.
8f\J)	.	8cccJ 8aa/)	8ryy	.	.
*	*	*v	*v	*	*
=113	=113	=113	=113	=113
!LO:TUP:a	!	!	!	!
(24BB-\LL	.	[4.bb- 4.dd\	.	.
24F\	.	.	.	.
24B-\J	.	.	.	.
8f\)	.	.	.	.
(8f\J	.	.	.	.
!!LO:PB:g=original
=114	=114	=114	=114	=114
*	*	*^	*	*
*	*	*	*	*below	*
16g\LL	.	8bb-/L]	4.ee-\	1	.
16a\	.	.	.	.	.
!	!	!LO:TX:b:i:t=dolce	!	!	!
*	*	*	*	*above	*
16b-\	.	8gg/	.	2	.
16g\J	.	.	.	.	.
8f\J)	.	8aa/J	.	.	.
=115	=115	=115	=115	=115	=115
!LO:TUP:a	!	!LO:TX:b:i:t=cantando	!	!	!
(24BB-\LL	.	8.bb-/L	4.dd\	3	.
24F\	.	.	.	.	.
24B-\J	.	.	.	.	.
8f\)	.	.	.	.	.
.	.	16ccc/K	.	.	.
(8f\J	.	8ddd/J	.	.	.
=116	=116	=116	=116	=116	=116
16g\LL	.	4bb-/	4.ee-\	3	.
16a\	.	.	.	.	.
16b-\	.	.	.	.	.
16g\J	.	.	.	.	.
8f\J)	.	8ccc 8aa/	.	.	.
*	*	*v	*v	*	*
=117	=117	=117	=117	=117
*	*	*8va	*	*
!LO:TUP:a	!	!	!	!
(24BB-\LL	.	8.dddL 8.bb- 8.dd/)	.	.
24F\	.	.	.	.
24B-\J	.	.	.	.
8f\)	.	.	.	.
.	.	16eee-K 16ee-/	4	.
(8f\J	.	[8fffJ [8ff/	.	.
=118	=118	=118	=118	=118
*	*	*^	*	*
16g\LL	.	(8fff]L 8ff/]	4.eee-^>\	.	<
16a\	.	.	.	.	.
16b-\	.	8ggg 8gg/	.	.	.
16g\J	.	.	.	.	.
8f\J)	.	8aaaJ 8aa/)	.	.	[
=119	=119	=119	=119	=119	=119
!LO:TUP:a	!	!	!	!	!
(24BB-\LL	.	(8ccccL 8ccc/	4ddd\	.	>
24F\	.	.	.	.	.
24B-\J	.	.	.	.	.
8f\)	.	8bbb- 8bb-/)	.	.	.
(8f\J	.	8fffJ 8ddd 8bb- 8ff'>/	8ryy	.	]
*	*	*v	*v	*	*
=120	=120	=120	=120	=120
16g\LL	.	(>4ddd 4bb- 4dd/	.	.
16a\	.	.	.	.
16b-\	.	.	.	.
16g\J	.	.	.	.
.	.	8qfff/	.	.
8f\J)	.	8eee- 8aa 8ee-/)	.	.
*	*	*X8va	*	*
!!LO:LB:g=original
=121	=121	=121	=121	=121
!LO:TUP:a	!	!	!	!
(24BB-\LL	.	([4.ddd 4.bb- 4.dd\	.	.
24F\	.	.	.	.
24B-\J	.	.	.	.
8f\)	.	.	.	.
(8f\J	.	.	.	.
=122	=122	=122	=122	=122
*	*	*^	*	*
16g\LL	.	8ddd/L]	4een^\	.	.
16a\	.	.	.	.	>
16b-\	.	8bb-/	.	.	.
16g\J	.	.	.	.	.
.	.	8qddd/	.	.	.
8f\J)	.	8cccJ 8aa/	8ee-X\	.	]
*	*	*v	*v	*	*
=123	=123	=123	=123	=123
!LO:TUP:a	!	!	!	!
(24BB-\LL	.	[4.bb- 4.dd\	.	.
24F\	.	.	.	.
24B-\J	.	.	.	.
8f\)	.	.	.	.
(8f\J	4	.	.	.
*clefG2	*	*	*	*
=124	=124	=124	=124	=124
*	*	*^	*	*
*	*	*	*	*below	*
16g-X/LL	3	4bb-/]	[4.ee-\	1	.
16a-X/	.	.	.	.	.
16b-/	.	.	.	.	.
16g-/J	.	.	.	.	.
[8a-/J	.	[8ccc/	.	.	.
*	*	*v	*v	*	*
=125	=125	=125	=125	=125
4.a-/])	.	4.ccc] 4.ee-\])	.	.
=126	=126	=126	=126	=126
*	*	*^	*	*
*	*	*	*	*above	*
!	!	!LO:TX:b:i:t=rit.	!	!	!LO:DY:t=più %s
(16g-X/LL	.	(4bb-/	[4.ee-\	3	p
16a-X/	.	.	.	.	.
16b-/	.	.	.	.	.
16g-/J	.	.	.	.	.
[8a-/J	.	[8ccc/	.	.	.
*	*	*v	*v	*	*
=127	=127	=127	=127	=127
4.a-/])	.	4.ccc] 4.ee-\])	.	.
!!LO:LB:g=original
=128	=128	=128	=128	=128
*	*	*^	*	*
!	!	!LO:TX:b:i:t=a tempo\nlegg.	!	!	!
8gg-X'\L	.	16ddd-X/LL	8bb-\L	2 3	.
.	.	16eee-/	.	.	.
8dd-X'\	.	16fff/	8aa\	.	.
.	.	16ddd-/J	.	.	.
8g-X'\J	.	8eee-~/J	8bb-\J	2 4	.
=129	=129	=129	=129	=129	=129
8ff'\L	.	16ccc/LL	8aa\L	1 3	.
.	.	16dddn/	.	.	.
8cc'\	.	16eeen/	8gg#X\	2 3	.
.	.	16ccc/J	.	.	.
8f'\J	.	8ddd~/J	8aa\J	1 4	.
=130	=130	=130	=130	=130	=130
8een'/L	.	16bbn/LL	8gg#X\L	2 3	.
.	.	16ccc#X/	.	.	.
8bn'/	.	16ddd#X/	8ff##X\	.	.
.	.	16bb/J	.	.	.
8en'/J	.	8ccc#/J	8gg#\J	.	<
=131	=131	=131	=131	=131	=131
8ee-X'/L	.	16bb-X/LL	8ggn\L	1 3	.
.	.	16cccn/	.	.	.
8b-X'/	.	16dddn/	8ff#X\	2 5	[
.	.	16bb-/J	.	.	.
8e-X'/J	.	8ccc/J	8gg\J	1 4	.
*	*	*v	*v	*	*
*clefF4	*	*	*	*
=132	=132	=132	=132	=132
!	!	!LO:TX:b:i:t=poco marcato	!	!
(>8qD/	.	.	.	.
8a\L)	.	8dddL 8ff#X'\	2 5	.
16f#X\L	2	8aa 8dd'\	3	.
16en\	3	.	.	.
16d\	1	8ff#XJ 8a'\	4	.
16c#X\JJ	2	.	.	.
!!LO:LB:g=original
=133	=133	=133	=133	=133
*^	*	*	*	*
16Bn/LL	8G\L	.	8dd'\L	3	>
16c#X/	.	.	.	.	.
16d/	8r	.	8bn'\	2	.
16f#X/J	.	.	.	.	]
8en/J	8A\J	.	8cc#XJ 8g'\	3	.
*v	*v	*	*	*	*
=134	=134	=134	=134	=134
*	*	*^	*^	*
8A 8D'\	.	8ffn'/L	8fn\	.	.	p
4B- 4D\	.	16dd/L	4f#X\	5	2	.
.	.	16cc/	.	.	.	.
.	.	16b-/	.	.	.	.
.	.	16a/JJ	.	.	.	.
*	*	*	*	*v	*v	*
*	*	*v	*v	*	*
=135	=135	=135	=135	=135
*^	*^	*	*	*
(8B-/L	4E-\	1	5	(16g\LL	1	.
.	.	.	.	16a\)	.	.
8G/)	.	3	.	16b-\	.	.
.	.	.	.	16dd\J	.	.
.	.	.	.	8qdd/	4	.
8A'/J	8F\	2	4	8cc'\J	3	.
=136	=136	=136	=136	=136	=136	=136
(8d/L	4G\	1	5	(16b-\LL	2	.
.	.	.	.	16cc\)	1	.
8B-/)	.	3	.	16dd\	2	.
!	!	!	!	!L	!	!LO:HP:t=poco cresc.
.	.	.	.	16ff\J	4	<
.	.	.	.	8qff/	3	.
8f'/J	8A\	1	4	8ee-'\J	2	.
=137	=137	=137	=137	=137	=137	=137
(8f/L	4B-\	1	5	(16dd\LL	1	.
.	.	.	.	16ee-\)	.	.
8d/)	.	3	.	16ff\	.	.
.	.	.	.	16aa\J	.	.
.	.	.	.	8qaa/	4	.
8aJ 8e-'/	8c\	.	4	8gg'\J	3	.
*	*	*v	*v	*	*	*
*v	*v	*	*	*	*
=138	=138	=138	=138	=138
*	*below	*	*	*
8a 8d'\	5	8ff'\	2	.
4g 4e-~\	4	4ee- 4b-~\	1 4	.
!!LO:LB:g=original
=139	=139	=139	=139	=139
.	.	16qqee-/LL	4	.
.	.	16qqff/JJ	.	.
8g 8c'\	.	8ee- 8a'\	.	p
4f 4d~\	.	4dd 4a~\	3	.
=140	=140	=140	=140	=140
*	*	*^	*	*
!	!	!	!	!	!LO:HP:t=poco cresc.
(8fL 8B-\	.	(24dd/LL	4g\	4	<
.	.	24ee-/	.	.	.
.	.	24dd/J	.	.	.
8e- 8c\)	.	8cc/)	.	.	.
(8e-J 8A\	.	(8cc/J	[8f\	4	.
=141	=141	=141	=141	=141	=141
8dL 8B-\)	.	8b-/L)	8f\]	3	.
.	.	(<8qcc/	.	.	.
(8d 8G\	.	(8b-/)	4e-\	.	.
8c\J)	.	8a/J)	.	.	.
*	*	*v	*v	*	*
=142	=142	=142	=142	=142
*^	*	*	*	*
*	*	*	*	*below	*
!	!	!	!LO:TX:a:i:t=non legato	!	!
4.B-/	(4E-\	3	16g/LL	1	.
.	.	.	16a/	3	.
.	.	.	16b-/	4	.
.	.	.	16g/J	2	.
.	8D\)	.	8f/J	.	>
=143	=143	=143	=143	=143	=143
4.G/	(4C\	3	16e-/LL	2	.
.	.	.	16f/	.	.
.	.	.	16g/	.	.
.	.	.	16e-/J	.	]
.	8BB-\)	.	8d/J	.	.
*v	*v	*	*	*	*
=144	=144	=144	=144	=144
*	*	*	*above	*
!LO:TX:b:i:t=molto staccato e leggiero	!	!	!	!
8AL 8AA/	.	16c/LL	2	p
.	.	16d/	3	.
8G 8GG/	.	16e-/	4	.
.	.	16c/	1	.
8G-XJ 8GG-X/	.	16B-/	3	.
.	.	16c/JJ	4	.
=145	=145	=145	=145	=145
8FL 8FF/	.	16A/LL	2	.
.	.	16B-/	3	.
8En 8EEn/	.	16c/	4	.
.	.	16A/	2	.
8E-XJ 8EE-X/	.	16G/	1	.
.	.	16A/JJ	3	.
!!LO:LB:g=original
=146	=146	=146	=146	=146
8DL 8DD/	.	16F/LL	1	.
.	.	16G/	.	.
8C 8CC/	.	16A/	.	.
.	.	16B-/	.	<
8BB-J 8BBB-/	.	16c/	1	.
.	.	16d/JJ	.	.
=147	=147	=147	=147	=147
!LO:TX:b:i:t=con 8-:dur=10e:ext=cd:problem:text with extention lines	!	!	!	!
8AA 8AAAyy/L	.	16e-/LL	.	.
.	.	16f/	1	.
8GG 8GGGyy/	.	16g/	.	.
.	.	16a/	.	[
8GG 8GGG-Xyy/J	.	16b-/	.	.
.	.	16cc/JJ	1	.
=148	=148	=148	=148	=148
8FF 8FFFyy/L	.	16dd\LL	.	.
.	.	16ee-\	.	>
8EEn 8EEEnyy/	.	16ff\	1	.
.	.	16gg\	.	.
8EE- 8EEE-Xyy/J	.	16aa\	.	.
.	.	16bb-\JJ	.	.
=149	=149	=149	=149	=149
*	*	*8va	*	*
8DD 8DDDyy/L	.	16ccc\LL	1	.
.	.	16ddd\	.	.
8CC 8CCCyy/	.	16eee-\	.	.
.	.	16fff\	1	.
8CC- 8CCC-Xyy/J	.	16ggg\	.	.
.	.	16aaa\JJ	.	]
=150	=150	=150	=150	=150
8BBB- 8BBBB-yy/	.	8bbb-\	.	pp
*X8ba	*	*X8va	*	*
8r	.	8r	.	.
8r	.	8r	.	.
=151	=151	=151	=151	=151
*ped	*	*tuplet	*	*
!LO:TUP:b	!	!LO:TUP:b	!	!
(24BBB-/LL	.	(24B-/LL	.	ff
24FF/	.	24f/	.	.
24BB-/J	.	24b-/J	.	.
8F'/J)	.	8f'/J)	.	.
*	*	*8va	*	*
8f 8F'\	.	8fff 8ff'\	.	.
=152	=152	=152	=152	=152
4b- 4d 4B-^<;\	.	4bbb- 4bb-^<;\	.	.
*Xped	*	*X8va	*	*
==	==	==	==	==
*-	*-	*-	*-	*-
!!!system-decoration: {(g1)}
!!!RDF**kern: i = editorial accidental
!!!RDF**kern: > = above
!!!RDF**kern: < = below
!!!RDF**kern: N = linked
!!!RDF**dynam: > = "dim.", fontstyle= "italic"
!!!ENC: Filip Voros
!!!EED: Katarzyna Serwa
!!!END: 2023-10-20
!!!EEV: 2023-11-09
